elements/rpg-character/lib/base/L.svg

<svg width="113" height="142" viewBox="0 0 113 142" fill="none" xmlns="http://www.w3.org/2000/svg">
<path d="M38 127V117H48V127H38Z" fill="#594930"/>
<path d="M39.5 120.5V118.5H46.5V120.5M39.5 120.5H46.5M39.5 120.5V122.5M46.5 120.5V122.5M39.5 122.5V125.5H46.5V122.5M39.5 122.5H46.5" stroke="#4B3E29"/>
</svg>

<svg xmlns="http://www.w3.org/2000/svg" fill="none" width="113" height="142" viewBox="0 0 113 142"><path d="M38 127v-10h10v10H38Z" fill="#594930"/><path d="M39.5 120.5v-2h7v2m-7 0h7m-7 0v2m7-2v2m-7 0v3h7v-3m-7 0h7" stroke="#4B3E29"/></svg>
